img/icons/instagram.svg

<svg xmlns="http://www.w3.org/2000/svg" width="24" height="24" viewBox="0 0 54 54"><title>instagram</title><path d="M27.2 6.1c-5.1 0-5.8 0-7.8.1s-3.4.4-4.6.9c-1.2.5-2.3 1.1-3.3 2.2-1.1 1-1.7 2.1-2.2 3.3-.5 1.2-.8 2.6-.9 4.6-.1 2-.1 2.7-.1 7.8s0 5.8.1 7.8.4 3.4.9 4.6c.5 1.2 1.1 2.3 2.2 3.3 1 1.1 2.1 1.7 3.3 2.2 1.2.5 2.6.8 4.6.9 2 .1 2.7.1 7.8.1s5.8 0 7.8-.1 3.4-.4 4.6-.9c1.2-.5 2.3-1.1 3.3-2.2 1.1-1 1.7-2.1 2.2-3.3.5-1.2.8-2.6.9-4.6.1-2 .1-2.7.1-7.8s0-5.8-.1-7.8-.4-3.4-.9-4.6c-.5-1.2-1.1-2.3-2.2-3.3-1-1.1-2.1-1.7-3.3-2.2-1.2-.5-2.6-.8-4.6-.9-2-.1-2.7-.1-7.8-.1zm0 3.4c5 0 5.6 0 7.6.1 1.9.1 2.9.4 3.5.7.9.3 1.6.7 2.2 1.4.7.6 1.1 1.3 1.4 2.2.3.6.6 1.6.7 3.5.1 2 .1 2.6.1 7.6s0 5.6-.1 7.6c-.1 1.9-.4 2.9-.7 3.5-.3.9-.7 1.6-1.4 2.2-.7.7-1.3 1.1-2.2 1.4-.6.3-1.7.6-3.5.7-2 .1-2.6.1-7.6.1-5.1 0-5.7 0-7.7-.1-1.8-.1-2.9-.4-3.5-.7-.9-.3-1.5-.7-2.2-1.4-.7-.7-1.1-1.3-1.4-2.2-.3-.6-.6-1.7-.7-3.5 0-2-.1-2.6-.1-7.6 0-5.1.1-5.7.1-7.7.1-1.8.4-2.8.7-3.5.3-.9.7-1.5 1.4-2.2.7-.6 1.3-1.1 2.2-1.4.6-.3 1.6-.6 3.5-.7h7.7zm0 5.8c-5.4 0-9.7 4.3-9.7 9.7 0 5.4 4.3 9.7 9.7 9.7 5.4 0 9.7-4.3 9.7-9.7 0-5.4-4.3-9.7-9.7-9.7zm0 16c-3.5 0-6.3-2.8-6.3-6.3s2.8-6.3 6.3-6.3 6.3 2.8 6.3 6.3-2.8 6.3-6.3 6.3zm12.4-16.4c0 1.3-1.1 2.3-2.3 2.3-1.3 0-2.3-1-2.3-2.3 0-1.2 1-2.3 2.3-2.3 1.2 0 2.3 1.1 2.3 2.3z" class="ampstart-icon ampstart-icon-instagram"/></svg>

<svg xmlns="http://www.w3.org/2000/svg" width="24" height="24" viewBox="0 0 54 54">
  <title>
      instagram
  </title>
  <desc>
      Created with Sketch.
  </desc>
  <defs>
    <filter x="-50" y="-50" width="200" height="200" filterUnits="objectBoundingBox">
      <feOffset dx="0" dy="2" in="SourceAlpha" result="shadowOffsetOuter1"/>
      <feGaussianBlur stdDeviation="4" in="shadowOffsetOuter1" result="shadowBlurOuter1"/>
      <feComposite in="shadowBlurOuter1" in2="SourceAlpha" operator="out" result="shadowBlurOuter1"/>
      <feColorMatrix values="0 0 0 0 0   0 0 0 0 0   0 0 0 0 0  0 0 0 0.5 0" type="matrix" in="shadowBlurOuter1" result="shadowMatrixOuter1"/>
      <feMerge>
        <feMergeNode in="shadowMatrixOuter1"/>
        <feMergeNode in="SourceGraphic"/>
      </feMerge>
    </filter>
    <filter x="-50" y="-50" width="200" height="200" filterUnits="objectBoundingBox" id="filter-2">
      <feGaussianBlur stdDeviation="0" in="SourceGraphic"/>
    </filter>
  </defs>
  <g fill="none">
    <g fill="#000" class="ampstart-icon ampstart-icon-instagram">
      <g filter="url(#filter-2)">
        <path d="M27.2 6.1C22.1 6.1 21.4 6.1 19.4 6.2 17.4 6.3 16 6.6 14.8 7.1 13.6 7.6 12.5 8.2 11.5 9.3 10.4 10.3 9.8 11.4 9.3 12.6 8.8 13.8 8.5 15.2 8.4 17.2 8.3 19.2 8.3 19.9 8.3 25 8.3 30.1 8.3 30.8 8.4 32.8 8.5 34.8 8.8 36.2 9.3 37.4 9.8 38.6 10.4 39.7 11.5 40.7 12.5 41.8 13.6 42.4 14.8 42.9 16 43.4 17.4 43.7 19.4 43.8 21.4 43.9 22.1 43.9 27.2 43.9 32.3 43.9 33 43.9 35 43.8 37 43.7 38.4 43.4 39.6 42.9 40.8 42.4 41.9 41.8 42.9 40.7 44 39.7 44.6 38.6 45.1 37.4 45.6 36.2 45.9 34.8 46 32.8 46.1 30.8 46.1 30.1 46.1 25 46.1 19.9 46.1 19.2 46 17.2 45.9 15.2 45.6 13.8 45.1 12.6 44.6 11.4 44 10.3 42.9 9.3 41.9 8.2 40.8 7.6 39.6 7.1 38.4 6.6 37 6.3 35 6.2 33 6.1 32.3 6.1 27.2 6.1ZM27.2 9.5C32.2 9.5 32.8 9.5 34.8 9.6 36.7 9.7 37.7 10 38.3 10.3 39.2 10.6 39.9 11 40.5 11.7 41.2 12.3 41.6 13 41.9 13.9 42.2 14.5 42.5 15.5 42.6 17.4 42.7 19.4 42.7 20 42.7 25 42.7 30 42.7 30.6 42.6 32.6 42.5 34.5 42.2 35.5 41.9 36.1 41.6 37 41.2 37.7 40.5 38.3 39.8 39 39.2 39.4 38.3 39.7 37.7 40 36.6 40.3 34.8 40.4 32.8 40.5 32.2 40.5 27.2 40.5 22.1 40.5 21.5 40.5 19.5 40.4 17.7 40.3 16.6 40 16 39.7 15.1 39.4 14.5 39 13.8 38.3 13.1 37.6 12.7 37 12.4 36.1 12.1 35.5 11.8 34.4 11.7 32.6 11.7 30.6 11.6 30 11.6 25 11.6 19.9 11.7 19.3 11.7 17.3 11.8 15.5 12.1 14.5 12.4 13.8 12.7 12.9 13.1 12.3 13.8 11.6 14.5 11 15.1 10.5 16 10.2 16.6 9.9 17.6 9.6 19.5 9.5 21.5 9.5 22.1 9.5 27.1 9.5L27.2 9.5ZM27.2 15.3C21.8 15.3 17.5 19.6 17.5 25 17.5 30.4 21.8 34.7 27.2 34.7 32.6 34.7 36.9 30.4 36.9 25 36.9 19.6 32.6 15.3 27.2 15.3L27.2 15.3ZM27.2 31.3C23.7 31.3 20.9 28.5 20.9 25 20.9 21.5 23.7 18.7 27.2 18.7 30.7 18.7 33.5 21.5 33.5 25 33.5 28.5 30.7 31.3 27.2 31.3ZM39.6 14.9C39.6 16.2 38.5 17.2 37.3 17.2 36 17.2 35 16.2 35 14.9 35 13.7 36 12.6 37.3 12.6 38.5 12.6 39.6 13.7 39.6 14.9Z"/>
      </g>
    </g>
  </g>
</svg>
